X: 305616
T: LOW'S HORNPIPE
C:
%R: hornpipe, reel
B: Elias Howe "The Musician's Companion" Part 3 1844 p.76 #1
S: http://imslp.org/wiki/The_Musician's_Companion_(Howe,_Elias)
Z: 2015 John Chambers <jc:trillian.mit.edu>
M: 2/4
L: 1/16
K: Bb
% - - - - - - - - - - - - - - - - - - - - - - - - -
de |\
fedc (TBA)(BF) | (G2B2 B2)dd | fec (BA)(BF) | G2(c2c2 de) |\
fedc (BA)(BF) | (GB)(Ac) ([cB][BA])[AG][GF] | FAce (dg)fe | (d2B2B2) :|
|: FE |\
(DF)AF (DF)AF | (EG)BG (EG)BG | Acec Acec | Bdfd Bdfd |\
(DF)BF (DF)BF | (EG)BG (EG)BG | (FA)ce (dg)fe | (d2B2B2) :|
% - - - - - - - - - - - - - - - - - - - - - - - - -


